app/assets/images/heroicons/outline/arrow-right-end-on-rectangle.svg

<svg width="24" height="24" viewBox="0 0 24 24" fill="none" xmlns="http://www.w3.org/2000/svg">
<path d="M8.25 9V5.25C8.25 4.00736 9.25736 3 10.5 3L16.5 3C17.7426 3 18.75 4.00736 18.75 5.25L18.75 18.75C18.75 19.9926 17.7426 21 16.5 21H10.5C9.25736 21 8.25 19.9926 8.25 18.75V15M12 9L15 12M15 12L12 15M15 12L2.25 12" stroke="#0F172A" stroke-width="1.5" stroke-linecap="round" stroke-linejoin="round"/>
</svg>

<svg xmlns="http://www.w3.org/2000/svg" fill="none" viewBox="0 0 24 24" stroke-width="1.5" stroke="currentColor" aria-hidden="true" data-slot="icon">
  <path stroke-linecap="round" stroke-linejoin="round" d="M8.25 9V5.25A2.25 2.25 0 0 1 10.5 3h6a2.25 2.25 0 0 1 2.25 2.25v13.5A2.25 2.25 0 0 1 16.5 21h-6a2.25 2.25 0 0 1-2.25-2.25V15M12 9l3 3m0 0-3 3m3-3H2.25"/>
</svg>
